svgs/sharp-thin/tree-city.svg

<svg xmlns="http://www.w3.org/2000/svg" viewBox="0 0 640 512"><!--! Font Awesome Pro 6.6.0 by @fontawesome - https://fontawesome.com License - https://fontawesome.com/license (Commercial License) Copyright 2024 Fonticons, Inc. --><path d="M288 0l8 0L504 0l8 0 0 8 0 184 48 0 0-88 0-8 16 0 0 8 0 88 56 0 8 0 0 8 0 304 0 8-16 0 0-8 0-296-48 0-16 0-56 0-8 0 0-8 0-184L304 16l0 488 0 8-16 0 0-8L288 8l0-8zM205.5 182.3l1.5-9.7c.6-4.1 1-8.3 1-12.6c0-44.2-35.8-80-80-80s-80 35.8-80 80c0 4.3 .3 8.5 1 12.6l1.5 9.7-8 5.8C26.4 199.7 16 218.7 16 240l0 64 104 0 0-72 0-8 16 0 0 8 0 72 104 0 0-64c0-21.3-10.4-40.3-26.6-51.9l-8-5.8zM16 320L0 320l0-16 0-64c0-26.7 13.1-50.3 33.2-64.9c-.8-4.9-1.2-10-1.2-15.1c0-53 43-96 96-96s96 43 96 96c0 5.1-.4 10.2-1.2 15.1C242.9 189.7 256 213.3 256 240l0 64 0 16-16 0-104 0 0 184 0 8-16 0 0-8 0-184L16 320zM368 72l64 0 8 0 0 8 0 64 0 8-8 0-64 0-8 0 0-8 0-64 0-8 8 0zm8 64l48 0 0-48-48 0 0 48zM488 264l8 0 64 0 8 0 0 8 0 64 0 8-8 0-64 0-8 0 0-8 0-64 0-8zm16 64l48 0 0-48-48 0 0 48zm-8 64l64 0 8 0 0 8 0 64 0 8-8 0-64 0-8 0 0-8 0-64 0-8 8 0zm8 64l48 0 0-48-48 0 0 48zM360 200l8 0 64 0 8 0 0 8 0 64 0 8-8 0-64 0-8 0 0-8 0-64 0-8zm16 64l48 0 0-48-48 0 0 48zm-8 64l64 0 8 0 0 8 0 64 0 8-8 0-64 0-8 0 0-8 0-64 0-8 8 0zm8 64l48 0 0-48-48 0 0 48z"/></svg>

<svg xmlns="http://www.w3.org/2000/svg" viewBox="0 0 640 512"><!--! Font Awesome Pro 6.5.2 by @fontawesome - https://fontawesome.com License - https://fontawesome.com/license (Commercial License) Copyright 2024 Fonticons, Inc. --><path d="M288 0h8H504h8V8 192h48V104 96h16v8 88h56 8v8V504v8H624v-8V208H576 560 504h-8v-8V16H304V504v8H288v-8V8 0zM205.5 182.3l1.5-9.7c.6-4.1 1-8.3 1-12.6c0-44.2-35.8-80-80-80s-80 35.8-80 80c0 4.3 .3 8.5 1 12.6l1.5 9.7-8 5.8C26.4 199.7 16 218.7 16 240v64H120V232v-8h16v8 72H240V240c0-21.3-10.4-40.3-26.6-51.9l-8-5.8zM16 320H0V304 240c0-26.7 13.1-50.3 33.2-64.9c-.8-4.9-1.2-10-1.2-15.1c0-53 43-96 96-96s96 43 96 96c0 5.1-.4 10.2-1.2 15.1C242.9 189.7 256 213.3 256 240v64 16H240 136V504v8H120v-8V320H16zM368 72h64 8v8 64 8h-8H368h-8v-8V80 72h8zm8 64h48V88H376v48zM488 264h8 64 8v8 64 8h-8H496h-8v-8V272v-8zm16 64h48V280H504v48zm-8 64h64 8v8 64 8h-8H496h-8v-8V400v-8h8zm8 64h48V408H504v48zM360 200h8 64 8v8 64 8h-8H368h-8v-8V208v-8zm16 64h48V216H376v48zm-8 64h64 8v8 64 8h-8H368h-8v-8V336v-8h8zm8 64h48V344H376v48z"/></svg>
